X: 3238
M: 6/8
L: 1/8
K: D
|:\
d3  cBA | B3  AGF | G2B AGF | BEE E3 |\
d3  cBA | B3  AGF | GFG AEG | FDD D2 :|
|:\


